src/16/actions/window-duplicate.svg

<svg xmlns="http://www.w3.org/2000/svg" viewBox="0 0 16 16"><path d="M2 2v12h3v-1H3V4h10v1h1V2H2zm4 4v8h8V6H6zm1 2h6v5H7V8z" fill="currentColor" color="#5d656b"/></svg>

<svg xmlns="http://www.w3.org/2000/svg" viewBox="0 0 16 16">
  <defs id="defs3051">
    <style type="text/css" id="current-color-scheme">
      .ColorScheme-Text {
        color:#5d656b;
      }
      </style>
  </defs>
    <path
       style="fill:currentColor;fill-opacity:1;stroke:none" 
       d="M 2 2 L 2 14 L 5 14 L 5 13 L 3 13 L 3 4 L 13 4 L 13 5 L 14 5 L 14 2 L 2 2 z M 6 6 L 6 14 L 14 14 L 14 6 L 6 6 z M 7 8 L 13 8 L 13 13 L 7 13 L 7 8 z "
       class="ColorScheme-Text"
       id="rect4498" />
</svg>
